X:1780
T:Marche de Queteux Pomerleau
M:C|
L:1/8
S:via Lisa Ornstein
R:French Canadian March
Z:Chords from a version from Phil Katz
Z:<http://tunes.nhcountrydance.com>.
K:G
D2 EF\ 
|: "D" G2A2 F2D2 | "G" E2D^CD2EF  | "D" G2A2 "G" G2B2 | "G" GABG "G" D2 "D" EF |
"D" G2A2F2D2    | "G" E2D^CD2EFV | "D" G2A2 "G" G2B2 |1 "G" G2>G2 D2 EF:|2 "G" G4 G2 |]
AB\   
| "Am" c4 "G" B4 | "Em" B2AG "D" A2AB   | "D" A2 "G" D2 "G" G2 "D" A2 | "G" B2AG "D" A2 B2 |
"Am" c4 "G" B4   | "Em" B2AG "Am" A2AB | "D" A2D2G2B2 |1 "G" G4G2    :|2 "G" GABG D2 EF    |]

